X:29
T:Allen Goose Fair. RH.029
R:Jig
S:Rev.R.Harrison’s MS,c1815,Cumbria
O:England
A:Temple Sowerby,Cumbria
Z:vmp.Simon Wilson. Review PJH, 2008.
M:6/8
L:1/8
Q:3/8=120
K:D
A|Bdd Add|Bdd Add|cee e2d|cee e2A|!
Bdd Add|Bdd Add|eaa a2g|fdd d2:|!
|:g|abc’ d’2a|fdd d2e/f/|gbb b2a/f/|gee e2a|!
abc’ d’2a|fdd d2A|Bdd Add|edc d2:|

